assets/images/services/dashed_arrow_right.svg

<svg width="143" height="24" viewBox="0 0 143 24" fill="none" xmlns="http://www.w3.org/2000/svg">
<path d="M2 10C0.89543 10 0 10.8954 0 12C0 13.1046 0.89543 14 2 14V10ZM143 12L123 0.452994V23.547L143 12ZM5.91667 14C7.02124 14 7.91667 13.1046 7.91667 12C7.91667 10.8954 7.02124 10 5.91667 10V14ZM13.75 10C12.6454 10 11.75 10.8954 11.75 12C11.75 13.1046 12.6454 14 13.75 14V10ZM21.5833 14C22.6879 14 23.5833 13.1046 23.5833 12C23.5833 10.8954 22.6879 10 21.5833 10V14ZM29.4167 10C28.3121 10 27.4167 10.8954 27.4167 12C27.4167 13.1046 28.3121 14 29.4167 14V10ZM37.25 14C38.3546 14 39.25 13.1046 39.25 12C39.25 10.8954 38.3546 10 37.25 10V14ZM45.0833 10C43.9788 10 43.0833 10.8954 43.0833 12C43.0833 13.1046 43.9788 14 45.0833 14V10ZM52.9167 14C54.0212 14 54.9167 13.1046 54.9167 12C54.9167 10.8954 54.0212 10 52.9167 10V14ZM60.75 10C59.6454 10 58.75 10.8954 58.75 12C58.75 13.1046 59.6454 14 60.75 14V10ZM68.5833 14C69.6879 14 70.5833 13.1046 70.5833 12C70.5833 10.8954 69.6879 10 68.5833 10V14ZM76.4167 10C75.3121 10 74.4167 10.8954 74.4167 12C74.4167 13.1046 75.3121 14 76.4167 14V10ZM84.25 14C85.3546 14 86.25 13.1046 86.25 12C86.25 10.8954 85.3546 10 84.25 10V14ZM92.0833 10C90.9788 10 90.0833 10.8954 90.0833 12C90.0833 13.1046 90.9788 14 92.0833 14V10ZM99.9167 14C101.021 14 101.917 13.1046 101.917 12C101.917 10.8954 101.021 10 99.9167 10V14ZM107.75 10C106.645 10 105.75 10.8954 105.75 12C105.75 13.1046 106.645 14 107.75 14V10ZM115.583 14C116.688 14 117.583 13.1046 117.583 12C117.583 10.8954 116.688 10 115.583 10V14ZM123.417 10C122.312 10 121.417 10.8954 121.417 12C121.417 13.1046 122.312 14 123.417 14V10ZM131.25 14C132.355 14 133.25 13.1046 133.25 12C133.25 10.8954 132.355 10 131.25 10V14ZM139.083 10C137.979 10 137.083 10.8954 137.083 12C137.083 13.1046 137.979 14 139.083 14V10ZM2 12V14H5.91667V12V10H2V12ZM13.75 12V14H21.5833V12V10H13.75V12ZM29.4167 12V14H37.25V12V10H29.4167V12ZM45.0833 12V14H52.9167V12V10H45.0833V12ZM60.75 12V14H68.5833V12V10H60.75V12ZM76.4167 12V14H84.25V12V10H76.4167V12ZM92.0833 12V14H99.9167V12V10H92.0833V12ZM107.75 12V14H115.583V12V10H107.75V12ZM123.417 12V14H131.25V12V10H123.417V12Z" fill="#D5D7DA"/>
</svg>

<svg xmlns="http://www.w3.org/2000/svg" width="143" height="24" fill="none"><path fill="#D5D7DA" d="M2 10a2 2 0 1 0 0 4zm141 2L123 .453v23.094zM5.917 14a2 2 0 1 0 0-4zm7.833-4a2 2 0 1 0 0 4zm7.833 4a2 2 0 1 0 0-4zm7.834-4a2 2 0 1 0 0 4zm7.833 4a2 2 0 1 0 0-4zm7.833-4a2 2 0 0 0 0 4zm7.834 4a2 2 0 0 0 0-4zm7.833-4a2 2 0 1 0 0 4zm7.833 4a2 2 0 1 0 0-4zm7.834-4a2 2 0 1 0 0 4zm7.833 4a2 2 0 1 0 0-4zm7.833-4a2 2 0 0 0 0 4zm7.834 4a2 2 0 0 0 0-4zm7.833-4a2 2 0 1 0 0 4zm7.833 4a2 2 0 1 0 0-4zm7.834-4a2 2 0 1 0 0 4zm7.833 4a2 2 0 1 0 0-4zm7.833-4a2 2 0 0 0 0 4zM2 12v2h3.917v-4H2zm11.75 0v2h7.833v-4H13.75zm15.667 0v2h7.833v-4h-7.833zm15.666 0v2h7.834v-4h-7.834zm15.667 0v2h7.833v-4H60.75zm15.667 0v2h7.833v-4h-7.833zm15.666 0v2h7.834v-4h-7.834zm15.667 0v2h7.833v-4h-7.833zm15.667 0v2h7.833v-4h-7.833z"/></svg>
